X: 42785
T: White Winged Diver, The
R: jig
M: 6/8
K: Dmajor
Af de2d|BA dB AF|Ad dB dd|Gd dA fd|e2 dB Ad|
BA FA Fd|BA FE DD|D2 Af de2|d BA dB|
AF Ad dB|dd Gd dA|fd e2 dB|Ad BA FA|
Fd BA FE|DD D2 DE|DD EF Ad|ef ed ef|
ed Bd AB|dF ED DD|ED EF Ad|ef ed ef|
ed Bd FE|DD3/2D3/2|

